DVA
CUT[Muede kehrt ein Wandersmann zurueck
    nach der Heimat sehnt sich seinen Blick]
REG[Europa, Mitteleuropa, Schweiz, Graubuenden, Tenna]
KEY[D1005  16  G 4/4]
MEL[-5_.1  3__.2_1_1_1_3_  -5___0__
    -5_1_  2__.1_-7_2_4_3_  1___
    -5_1_3_5_  5___4_3_2_1_  -6___0__
    1_-6_  -5_1_1__-7_2_4_3_  1___
    -5_1_3_5_  5___4_3_2_1_  -6___0__
    1_-6_  -5_1_1__-7_2_4_3_  1___0__ //] >>
FCT[Liebes - Lied]
CMT[DVA-Signatur A 28 158]
